X:1140
T:The Wreck of the Number Nine
C:Carson Robison, 1927
L:1/4
M:2/2
R:Reel
S:Colin Hume's website,  colinhume.com  - chords can also be printed below the stave.
Q:1/2=112
K:G
P:A
B | "G"d2 dB | G2 Bd | "C"g2 ge | c2 ze | "G"dd2 B | GG BB | "D7"A4 | zB Bc |
"G"d2 dB | G2 Bd | "C"g2 ge | c2 ze | "G"dd2 B | "D7"Ac BA | "G"G4 | z3g |
"D"ff2g | a2 gf | "C"gg2d | "G"B2 zd | "C"eg2e | "G"dB G2 | "D"A4 | z3B |
"G"d2 dB | G2 Bd | "C"g2 ge | c2 ze | "G"dd2 B | "D7"Ac BA | "G"G4 | z3 |]

